images-ng/colibre/document-save.svg

<svg height="24" viewBox="0 0 6.3499999 6.3500002" width="24" xmlns="http://www.w3.org/2000/svg"><g transform="translate(0 -290.64998)"><path d="m3 2a1.0001 1.0001 0 0 0 -1 1v16a1.0001 1.0001 0 0 0 .2929688.707031l2 2a1.0001 1.0001 0 0 0 .7070312.292969h16a1.0001 1.0001 0 0 0 1-1v-18a1.0001 1.0001 0 0 0 -1-1zm3 1h12v6h-12zm1 12h10v6h-6v-5h-2v5h-2z" fill="#922e9b" stroke-width=".999999" transform="matrix(.26458334 0 0 .26458334 0 290.64998)"/><path d="m.79375 291.44375v4.23334l.5291667.52916h.2645833v-1.85208h3.175v1.85208h.79375v-4.7625h-.5291666v1.85209h-3.7041667v-1.85209z" fill="#d492d8" stroke-width=".264583"/><path d="m1.5875 291.44375v1.5875h3.175v-1.5875zm.2645834 3.175v1.5875h.5291666v-1.32291h.5291667v1.32291h1.5875v-1.5875z" fill="#fafafa"/></g></svg>

<?xml version="1.0" encoding="UTF-8" standalone="no"?>
<svg
   height="22"
   viewBox="0 0 5.8208332 5.8208335"
   width="22"
   version="1.1"
   id="svg10"
   sodipodi:docname="document-save.svg"
   inkscape:version="1.2.1 (9c6d41e410, 2022-07-14)"
   xmlns:inkscape="http://www.inkscape.org/namespaces/inkscape"
   xmlns:sodipodi="http://sodipodi.sourceforge.net/DTD/sodipodi-0.dtd"
   xmlns="http://www.w3.org/2000/svg"
   xmlns:svg="http://www.w3.org/2000/svg">
  <defs
     id="defs14" />
  <sodipodi:namedview
     id="namedview12"
     pagecolor="#ffffff"
     bordercolor="#000000"
     borderopacity="0.25"
     inkscape:showpageshadow="2"
     inkscape:pageopacity="0.0"
     inkscape:pagecheckerboard="0"
     inkscape:deskcolor="#d1d1d1"
     showgrid="false"
     inkscape:zoom="16.469695"
     inkscape:cx="7.3468268"
     inkscape:cy="10.747011"
     inkscape:window-width="1366"
     inkscape:window-height="719"
     inkscape:window-x="0"
     inkscape:window-y="0"
     inkscape:window-maximized="1"
     inkscape:current-layer="svg10" />
  <g
     transform="translate(-0.26458341,-290.91456)"
     id="g8">
    <path
       d="M 3,2 A 1.0001,1.0001 0 0 0 2,3 v 16 a 1.0001,1.0001 0 0 0 0.2929688,0.707031 l 2,2 A 1.0001,1.0001 0 0 0 5,22 h 16 a 1.0001,1.0001 0 0 0 1,-1 V 3 A 1.0001,1.0001 0 0 0 21,2 Z M 6,3 H 18 V 9 H 6 Z m 1,12 h 10 v 6 H 11 V 16 H 9 v 5 H 7 Z"
       fill="#922e9b"
       stroke-width="0.999999"
       transform="matrix(0.26458334,0,0,0.26458334,0,290.64998)"
       id="path2" />
    <path
       d="m 0.79375,291.44375 v 4.23334 l 0.5291667,0.52916 H 1.5875 v -1.85208 h 3.175 v 1.85208 h 0.79375 v -4.7625 H 5.0270834 v 1.85209 H 1.3229167 v -1.85209 z"
       fill="#d492d8"
       stroke-width="0.264583"
       id="path4" />
    <path
       d="m 1.5875,291.44375 v 1.5875 h 3.175 v -1.5875 z m 0.2645834,3.175 v 1.5875 H 2.38125 v -1.32291 h 0.5291667 v 1.32291 h 1.5875 v -1.5875 z"
       fill="#fafafa"
       id="path6" />
  </g>
</svg>
